!!!OTL: DER WEIN DER WEIN IST GOLDES WERTH
!!!ARE: Europa, Mitteleuropa, Deutschland
!!!SCT: F0724
!!!YEM: Copyright 1995, estate of Helmut Schaffrath.
**kern
*ICvox
*Ivox
*M4/4
*k[]
*C:
{8G
=1
4.G
8c
4.c
8e
=2
8e
8d
8c
8B
4c}
{4e
=3
8e
8d
8c
8B
8B
8A
8G
8F#
=4
2A
4G
8r}
{8G
=5
4.G
8c
4.c
8e
=6
8e
8d
8c
8B
4c}
{4e
=7
8e
8d
8c
8B
8B
8A
8G
8F#
=8
2A
4G
8r}
{8d
=9
4.d
8c
8c
8B
8A
8G
=10
8G
8A
8G
8F
4E}
{4c
=11
4A
4c
4G
4c
=12
8e
8d
8c
8B
4c
8r}
{8d
=13
4.d
8c
8c
8B
8A
8G
=14
8G
8A
8G
8F
4E}
{4c
=15
4A
4c
4G
4c
=16
8e
8d
8c
8B
4c
8r}
==
!!!AGN: Geselligkeits -, Trink - Lied
!!!ONB: ESAC (Essen Associative Code) Database: FINK
!!!AMT: simple quadruple
!!!AIN: vox
!!!EED: Helmut Schaffrath
!!!EEV: 1.0
*-
